app/img/icons/svg/close.svg

<?xml version="1.0" encoding="UTF-8" standalone="no"?>
<svg xmlns="http://www.w3.org/2000/svg" height="19.311" width="18.898" version="1.1" viewBox="0 0 18.898199 19.3113" fill="none">
 <g transform="translate(-.91602 -.2771)">
  <g fill-opacity="0">
   <rect transform="translate(.91602 .2771)" height="19.311" width="18.898" y="0" x="0"/>
   <rect transform="translate(.91602 .2771)" height="19.311" width="18.898" y="0" x="0"/>
   <rect transform="translate(.91602 .2771)" height="19.311" width="18.898" y="0" x="0"/>
  </g>
  <path fill="currentColor" d="m14.355 5.8562c-0.2519-0.25749-0.6719-0.25749-0.9239 0l-3.066 3.1327-3.0446-3.1327c-0.25197-0.25749-0.67193-0.25749-0.92391 0-0.25197 0.25748-0.25197 0.68662 0 0.94411l3.0447 3.1327-3.0657 3.111c-0.25197 0.2575-0.25197 0.6866 0 0.9441 0.12599 0.1287 0.29398 0.1931 0.46196 0.1931s0.33597-0.0644 0.46196-0.1931l3.0657-3.1113 3.0447 3.1328c0.126 0.1287 0.294 0.1931 0.462 0.1931s0.3359-0.0644 0.4619-0.1931c0.252-0.2575 0.252-0.6867 0-0.9442l-3.045-3.133 3.066-3.1112c0.252-0.27894 0.252-0.68662 0-0.96556z"/>
  <path fill="currentColor" d="m10.365 0.2771c-5.2285 0-9.4491 4.3128-9.4491 9.6556s4.2206 9.6557 9.4491 9.6557 9.4491-4.3129 9.4491-9.6557-4.2206-9.6556-9.4491-9.6556zm5.7534 15.535c-1.5328 1.5663-3.5696 2.4246-5.7534 2.4246-2.1628 0-4.2206-0.8583-5.7534-2.4246-1.5322-1.566-2.3721-3.648-2.3721-5.8793 0-2.21 0.8399-4.3128 2.3727-5.8792 1.5329-1.5663 3.5697-2.4246 5.7534-2.4246 2.1628 0 4.2206 0.85828 5.7534 2.4246 1.5329 1.5664 2.3728 3.6477 2.3728 5.8792 0 2.2101-0.8399 4.3129-2.3728 5.8793z"/>
 </g>
</svg>

<svg width="20" height="20" viewBox="0 0 20 20" fill="none" xmlns="http://www.w3.org/2000/svg">
<rect width="18.8982" height="19.3113" fill="black" fill-opacity="0" transform="translate(0.916016 0.2771)"/>
<rect width="18.8982" height="19.3113" fill="black" fill-opacity="0" transform="translate(0.916016 0.2771)"/>
<rect width="18.8982" height="19.3113" fill="black" fill-opacity="0" transform="translate(0.916016 0.2771)"/>
<path d="M14.3547 5.8562C14.1028 5.59871 13.6828 5.59871 13.4308 5.8562L10.3651 8.98892L7.32041 5.8562C7.06844 5.59871 6.64848 5.59871 6.3965 5.8562C6.14453 6.11368 6.14453 6.54282 6.3965 6.80031L9.44121 9.93303L6.3755 13.0443C6.12353 13.3018 6.12353 13.7309 6.3755 13.9884C6.50149 14.1171 6.66948 14.1815 6.83746 14.1815C7.00544 14.1815 7.17343 14.1171 7.29942 13.9884L10.3651 10.8771L13.4098 14.0099C13.5358 14.1386 13.7038 14.203 13.8718 14.203C14.0398 14.203 14.2077 14.1386 14.3337 14.0099C14.5857 13.7524 14.5857 13.3232 14.3337 13.0657L11.289 9.93303L14.3547 6.82176C14.6067 6.54282 14.6067 6.13514 14.3547 5.8562Z" fill="currentColor"/>
<path d="M10.3651 0.2771C5.1366 0.2771 0.916016 4.58995 0.916016 9.93274C0.916016 15.2755 5.1366 19.5884 10.3651 19.5884C15.5936 19.5884 19.8142 15.2755 19.8142 9.93274C19.8142 4.58995 15.5936 0.2771 10.3651 0.2771ZM16.1185 15.812C14.5857 17.3783 12.5489 18.2366 10.3651 18.2366C8.2023 18.2366 6.1445 17.3783 4.61165 15.812C3.0788 14.2456 2.23889 12.1643 2.23889 9.93274C2.23889 7.72267 3.0788 5.61989 4.61165 4.05353C6.1445 2.48717 8.18131 1.62889 10.3651 1.62889C12.5279 1.62889 14.5857 2.48717 16.1185 4.05353C17.6514 5.61989 18.4913 7.70122 18.4913 9.93274C18.4913 12.1428 17.6514 14.2456 16.1185 15.812Z" fill="currentColor"/>
</svg>
